X:253
T:The Woods Of Old Limerick
R:jig
M:6/8
L:1/8
K:Fmaj
A2F GAB | c2f ecB | A2F GAB | GEC GAB |
A2F GAB | c2f ecB | A2F GAB | GFE F2G ::
afe f2f | ecB cga|bgf gga | bgf ffg |
afe f2f | ecB c2B | AFF GAB | GFE F2g :|
